src/svg/camera-outline.svg

<svg version="1.2" baseProfile="tiny" xmlns="http://www.w3.org/2000/svg" width="24" height="24" viewBox="0 0 24 24"><path d="M19 20h-14c-1.654 0-3-1.346-3-3v-8c0-1.654 1.346-3 3-3h1.586l1-1c.579-.579 1.596-1 2.414-1h4c.818 0 1.835.421 2.414 1l1 1h1.586c1.654 0 3 1.346 3 3v8c0 1.654-1.346 3-3 3zm-14-12c-.552 0-1 .448-1 1v8c0 .552.448 1 1 1h14c.552 0 1-.448 1-1v-8c0-.552-.448-1-1-1h-2c-.266 0-.52-.105-.707-.293l-1.293-1.293c-.201-.201-.715-.414-1-.414h-4c-.285 0-.799.213-1 .414l-1.293 1.293c-.187.188-.441.293-.707.293h-2zM12 10c1.379 0 2.5 1.121 2.5 2.5s-1.121 2.5-2.5 2.5-2.5-1.121-2.5-2.5 1.121-2.5 2.5-2.5m0-1c-1.934 0-3.5 1.566-3.5 3.5 0 1.932 1.566 3.5 3.5 3.5s3.5-1.568 3.5-3.5c0-1.934-1.566-3.5-3.5-3.5zM18 8.699c-.719 0-1.3.582-1.3 1.301s.581 1.299 1.3 1.299 1.3-.58 1.3-1.299-.581-1.301-1.3-1.301z"/></svg>

<?xml version="1.0" encoding="iso-8859-1"?>
<!-- Generator: Adobe Illustrator 16.2.1, SVG Export Plug-In . SVG Version: 6.00 Build 0)  -->
<svg version="1.2" baseProfile="tiny" id="Layer_1" xmlns="http://www.w3.org/2000/svg" xmlns:xlink="http://www.w3.org/1999/xlink"
	 x="0px" y="0px" width="24px" height="24px" viewBox="0 0 24 24" xml:space="preserve">
<g>
	<path d="M19,20H5c-1.654,0-3-1.346-3-3V9c0-1.654,1.346-3,3-3h1.586l1-1C8.165,4.421,9.182,4,10,4h4c0.818,0,1.835,0.421,2.414,1
		l1,1H19c1.654,0,3,1.346,3,3v8C22,18.654,20.654,20,19,20z M5,8C4.448,8,4,8.448,4,9v8c0,0.552,0.448,1,1,1h14c0.552,0,1-0.448,1-1
		V9c0-0.552-0.448-1-1-1h-2c-0.266,0-0.52-0.105-0.707-0.293L15,6.414C14.799,6.213,14.285,6,14,6h-4C9.715,6,9.201,6.213,9,6.414
		L7.707,7.707C7.52,7.895,7.266,8,7,8H5z"/>
</g>
<g>
	<path d="M12,10c1.379,0,2.5,1.121,2.5,2.5S13.379,15,12,15s-2.5-1.121-2.5-2.5S10.621,10,12,10 M12,9c-1.934,0-3.5,1.566-3.5,3.5
		c0,1.932,1.566,3.5,3.5,3.5s3.5-1.568,3.5-3.5C15.5,10.566,13.934,9,12,9z"/>
</g>
<g>
	<path d="M18,8.699c-0.719,0-1.3,0.582-1.3,1.301s0.581,1.299,1.3,1.299s1.3-0.58,1.3-1.299S18.719,8.699,18,8.699z"/>
</g>
</svg>
